actions/16/window-new.svg

<svg xmlns="http://www.w3.org/2000/svg" viewBox="0 0 16 16">
  <defs id="defs3051">
    <style type="text/css" id="current-color-scheme">.ColorScheme-Text {color:#fcfcfc;}</style>
  </defs>
    <path
       style="fill:currentColor;fill-opacity:1;stroke:none" 
       d="m 2,4 c 0,2 0,6 0,8 0,2 2,2 2,2 H 9 V 13 H 4 C 4,13 3,13 3,12 3,11 3,6 3,5 3,4 4,4 4,4 h 8 c 0,0 1,0 1,1 0,1 0,4 0,4 h 1 C 14,9 14,6 14,4 14,2 12,2 12,2 H 4 C 4,2 2,2 2,4 Z m 9,5 v 2 H 9 v 1 h 2 v 2 h 1 v -2 h 2 V 11 H 12 V 9 Z"
     class="ColorScheme-Text"
       id="rect4498" />
</svg>

<svg xmlns="http://www.w3.org/2000/svg" viewBox="0 0 16 16">
  <defs id="defs3051">
    <style type="text/css" id="current-color-scheme">
      .ColorScheme-Text {
        color:#eff0f1;
      }
      </style>
  </defs>
    <path
       style="fill:currentColor;fill-opacity:1;stroke:none" 
       d="M 2 2 L 2 14 L 9 14 L 9 13 L 3 13 L 3 4 L 13 4 L 13 9 L 14 9 L 14 2 L 2 2 z M 11 9 L 11 11 L 9 11 L 9 12 L 11 12 L 11 14 L 12 14 L 12 12 L 14 12 L 14 11 L 12 11 L 12 9 L 11 9 z "
     class="ColorScheme-Text"
       id="rect4498" />
</svg>
